communes/3783.svg

<?xml version="1.0" encoding="UTF-8"?>
<!DOCTYPE svg  PUBLIC '-//W3C//DTD SVG 1.1//EN'  'http://www.w3.org/Graphics/SVG/1.1/DTD/svg11.dtd'>
<svg width="438" height="480" viewBox="21 15 438 480" xmlns="http://www.w3.org/2000/svg" xmlns:dc="http://purl.org/dc/elements/1.1/" xmlns:rdf="http://www.w3.org/1999/02/22-rdf-syntax-ns#" xmlns:xlink="http://www.w3.org/1999/xlink">
<metadata>
<rdf:RDF>
<rdf:Description dc:date="2006-11-01" dc:format="image/svg+xml" dc:language="de" dc:title="Wappen Madulain (CH-GR)">
<dc:creator rdf:resource="http://de.wikipedia.org/wiki/Benutzer:Bernina"/>
</rdf:Description>
</rdf:RDF>
</metadata>
<title>Wappen Madulain (CH-GR)</title>
<style type="text/css"><![CDATA[
  .Rand1 { stroke: #202020; stroke-width:15; }
  .Rand2 { stroke: #202020; stroke-width:30; }
  .Rand3 { stroke: #202020; stroke-width:45; }
  .Rand6 { stroke: #202020; stroke-width:90; }
  .Rand12 { stroke: #202020; stroke-width:180; stroke-linecap:round; }
  .Silber8 { stroke: #ffffff; stroke-width:120; stroke-linecap:round; }
  .Schwarz { fill: #000000; }
  .Silber { fill: #ffffff; }
  ]]></style>
<defs>
<path id="d" d="m2672 5570 172 150"/>
<path id="c" d="m2763 5455 172 150"/>
<path id="b" d="m4855 5751 164-112"/>
<path id="a" d="m4777 5631 164-112"/>
<clipPath id="e">
<path d="m360 4140a3240 3240 0 0 0 6480 0v-3870h-6480v3870z"/>
</clipPath>
</defs>
<g transform="scale(.066667)" fill="none" fill-rule="evenodd" stroke-miterlimit="10" stroke-width="10">
<g clip-path="url(#e)">
<path class="Schwarz" d="m-225-225v7650h7650v-7650h-7650z"/>
<path class="Silber Rand3" d="m3600 3600h360v-1350h-360v1350z"/>
<path class="Silber Rand2" d="m3744 4678-456 354-330 300-278 252 128 84 270-210 276-202 480-344"/>
<path class="Silber Rand2" d="m3812 4994 548 374 518 316 156-16-194-194-322-270-630-496"/>
<path class="Silber Rand2" d="m3960 7425v-3465-540h-270v-990c60-30 120-60 255-75s345-15 645-15c-300-150-510-300-645-405s-195-165-225-240-30-165-30-345 0-450-15-600-45-180-75-210c-60 120-120 240-150 390s-30 330-75 555-135 495-240 660-225 225-390 285v1620c225-30 405-60 540-75s225-15 270 0 45 45 45 623v2827"/>
<path class="Silber Rand2" d="m1254 5548c152 70.67 304 141.33 455 266.67 151 125.33 301 305.33 526 470.33s525 315 885 390 780 75 1140-30 660-315 900-510 420-375 540-510 180-225 221.67-292.67c41.66-67.66 65-113 88.33-158.33l-300-142s-8.14 19.23-21.45 47.65c-13.32 28.42-25.08 50.91-41.88 79.02-16.81 28.11-40.85 65.85-78.22 114.46-37.36 48.61-83.45 101.87-138.45 156.87s-129.78 122.61-222.47 192.92-191.28 133.96-287.53 182.08-209.18 90.24-344.55 124.61c-135.37 34.36-276.07 56.64-420.45 70.39s-320.95 21.68-505.84 17.53c-184.89-4.16-353.54-19.53-484.16-47.53s-249.05-72.07-351.72-130.76c-102.67-58.7-176.66-123.81-230.28-186.91-53.62-63.09-97.48-136.65-129.82-211.87-32.33-75.21-49.12-142.15-55.85-193.79-6.72-51.64-6.27-86.03 0.07-116.62 6.35-30.58 24.6-76.05 34.6-136.05s4.47-94.45-2.25-118.12c-6.72-23.68-11.75-31.88-11.75-31.88"/>
<path class="Silber Rand2" d="m6033.9 5203a210 150 30 0 0-363.74-210 210 150 30 0 0 363.74 210z"/>
<path class="Silber Rand2" d="m2423.5 4770a720 270-30 0 0-1247.1 720 720 270-30 0 0 1247.1-720z"/>
<path class="Silber Rand2" d="m4881 5803c23.67 60.33 47.33 120.67 77.83 168.17s67.84 82.16 107.84 108.5c40 26.33 82.66 44.33 125.33 62.33l234-219c-60.67-17-121.33-34-164-53-42.67-18-67.33-38-90.33-71.17-23-33.16-44.34-79.5-65.67-125.83"/>
<path class="Silber Rand2" d="m2631 5628c-29 51.33-58 102.67-111.17 170.67-53.16 68-130.5 152.66-213.83 218.66-84.33 66-174.67 113.34-265 160.67l270 200c75.67-54 151.33-108 220.17-171.33 68.83-63.34 130.83-136 174.66-210.67 43.84-74.67 69.5-151.33 95.17-228"/>
<path class="Silber Rand2" d="m3960 4680v180c60-30 120-60 165-120s75-150 75-225-30-135-75-180-105-75-195-90-210-15-300 0-150 45-195 90-75 105-75 180 30 165 75 225 105 90 165 120v-180c-30-30-60-60-60-90s30-60 105-75 195-15 270 0 105 45 105 75-30 60-60 90z"/>
<path class="Schwarz Rand1" d="m5929.9 5143a90 60 30 0 0-155.88-90 90 60 30 0 0 155.88 90z"/>
<path class="Schwarz Rand1" d="m2322.7 4960a532 150-30 0 0-921.46 532 532 150-30 0 0 921.46-532z"/>
<path class="Schwarz" d="m3840 5760a60 60 0 0 0-120 0 60 60 0 0 0 120 0z"/>
<path class="Schwarz" d="m3840 4050a60 60 0 0 0-120 0 60 60 0 0 0 120 0z"/>
<path class="Schwarz" d="m3840 4680a60 60 0 0 0-120 0 60 60 0 0 0 120 0z"/>
<path class="Schwarz" d="m3840 6930a60 60 0 0 0-120 0 60 60 0 0 0 120 0z"/>
<path class="Schwarz" d="m3840 5220a60 60 0 0 0-120 0 60 60 0 0 0 120 0z"/>
<use class="Rand12" stroke-linecap="round" xlink:href="#d"/>
<use class="Rand12" stroke-linecap="round" xlink:href="#c"/>
<use class="Rand12" stroke-linecap="round" xlink:href="#b"/>
<use class="Rand12" stroke-linecap="round" xlink:href="#a"/>
<use class="Silber8" stroke-linecap="round" xlink:href="#d"/>
<use class="Silber8" stroke-linecap="round" xlink:href="#c"/>
<use class="Silber8" stroke-linecap="round" xlink:href="#b"/>
<use class="Silber8" stroke-linecap="round" xlink:href="#a"/>
</g>
<path class="Rand6" d="m360 4140a3240 3240 0 0 0 6480 0v-3870h-6480v3870z"/>
</g>
</svg>

<?xml version="1.0" encoding="iso-8859-1"?>
<!DOCTYPE svg PUBLIC "-//W3C//DTD SVG 1.1//EN" "http://www.w3.org/Graphics/SVG/1.1/DTD/svg11.dtd">
<!-- Auto-generated by fig2svg tool
     Date: Wed Nov  1 15:46:36 2006 -->
<svg xmlns="http://www.w3.org/2000/svg"
   xmlns:dc="http://purl.org/dc/elements/1.1/"
   xmlns:cc="http://creativecommons.org/ns#"
   xmlns:rdf="http://www.w3.org/1999/02/22-rdf-syntax-ns#"
   xmlns:svg="http://www.w3.org/2000/svg"
   xmlns:xlink="http://www.w3.org/1999/xlink"
     width="438" height="480" viewBox="21 15 438 480">
<metadata>
<rdf:RDF>
<rdf:Description
 dc:title="Wappen Madulain (CH-GR)"
 dc:date="2006-11-01"
 dc:format="image/svg+xml"
 dc:language="de">
<dc:creator rdf:resource="http://de.wikipedia.org/wiki/Benutzer:Bernina" />
</rdf:Description>
</rdf:RDF>
</metadata>
<title>
Wappen Madulain (CH-GR)
</title>
<style type="text/css">
  <![CDATA[
  .Rand1 { stroke: #202020; stroke-width:15; }
  .Rand2 { stroke: #202020; stroke-width:30; }
  .Rand3 { stroke: #202020; stroke-width:45; }
  .Rand6 { stroke: #202020; stroke-width:90; }
  .Rand12 { stroke: #202020; stroke-width:180; stroke-linecap:round; }
  .Silber8 { stroke: #ffffff; stroke-width:120; stroke-linecap:round; }
  .Schwarz { fill: #000000; }
  .Silber { fill: #ffffff; }
  ]]>
</style>
<defs>
<path id="bund-1" d="M2672,5570 L2844,5720" />
<path id="bund-2" d="M2763,5455 L2935,5605" />
<path id="bund-3" d="M4855,5751 L5019,5639" />
<path id="bund-4" d="M4777,5631 L4941,5519" />
<clipPath id="clippath">
<path d="M360,4140 A3240,3240 0.0 0 0 6840,4140 L6840,270 L360,270 L360,4140 Z" />
</clipPath>
</defs>
<g stroke="none" stroke-miterlimit="10" stroke-width="10"
   stroke-linecap="butt" stroke-linejoin="miter"
   fill="none" fill-rule="evenodd" transform="scale(0.066667)">
<g clip-path="url(#clippath)">
<path id="feld-1" class="Schwarz"
      d="M-225,-225 L-225,7425 L7425,7425 L7425,-225 L-225,-225 Z" />
<path id="stiel-1" class="Silber Rand3"
      d="M3600,3600 L3960,3600 L3960,2250 L3600,2250 L3600,3600 Z" />
<path id="band1-1" class="Silber Rand2"
      d="M3744,4678 L3288,5032 L2958,5332 L2680,5584 L2808,5668 L3078,5458
         L3354,5256 L3834,4912" />
<path id="band1-2" class="Silber Rand2"
      d="M3812,4994 L4360,5368 L4878,5684 L5034,5668 L4840,5474 L4518,5204
         L3888,4708" />
<path id="halb-1" class="Silber Rand2"
      d="M3960,7425 L3960,3960 L3960,3420 L3690,3420 L3690,2430
         C3750,2400 3810,2370 3945,2355 C4080,2340 4290,2340 4590,2340
         C4290,2190 4080,2040 3945,1935 C3810,1830 3750,1770 3720,1695
         C3690,1620 3690,1530 3690,1350 C3690,1170 3690,900 3675,750
         C3660,600 3630,570 3600,540 C3540,660 3480,780 3450,930
         C3420,1080 3420,1260 3375,1485 C3330,1710 3240,1980 3135,2145
         C3030,2310 2910,2370 2745,2430 L2745,4050
         C2970,4020 3150,3990 3285,3975 C3420,3960 3510,3960 3555,3975
         C3600,3990 3600,4020 3600,4598 C3600,5175 3600,6300 3600,7425" />
<path id="horn1-1" class="Silber Rand2"
      d="M1254,5548 C1406,5618.67 1558,5689.33 1709,5814.67
         C1860,5940 2010,6120 2235,6285 C2460,6450 2760,6600 3120,6675
         C3480,6750 3900,6750 4260,6645 C4620,6540 4920,6330 5160,6135
         C5400,5940 5580,5760 5700,5625 C5820,5490 5880,5400 5921.67,5332.33
         C5963.33,5264.67 5986.67,5219.33 6010,5174 L5710,5032
         C5710,5032 5701.86,5051.23 5688.55,5079.65
         C5675.23,5108.07 5663.47,5130.56 5646.67,5158.67
         C5629.86,5186.78 5605.82,5224.52 5568.45,5273.13
         C5531.09,5321.74 5485,5375 5430,5430
         C5375,5485 5300.22,5552.61 5207.53,5622.92
         C5114.84,5693.23 5016.25,5756.88 4920,5805
         C4823.75,5853.12 4710.82,5895.24 4575.45,5929.61
         C4440.08,5963.97 4299.38,5986.25 4155,6000
         C4010.62,6013.75 3834.05,6021.68 3649.16,6017.53
         C3464.27,6013.37 3295.62,5998 3165,5970
         C3034.38,5942 2915.95,5897.93 2813.28,5839.24
         C2710.61,5780.54 2636.62,5715.43 2583,5652.33
         C2529.38,5589.24 2485.52,5515.68 2453.18,5440.46
         C2420.85,5365.25 2404.06,5298.31 2397.33,5246.67
         C2390.61,5195.03 2391.06,5160.64 2397.40,5130.05
         C2403.75,5099.47 2422,5054 2432,4994
         C2442,4934 2436.47,4899.55 2429.75,4875.88 C2423.03,4852.20 2418,4844 2418,4844" />
<path id="horn2-1" class="Silber Rand2"
      d="M6033.87,5203.00 A210,150 30.0 0 0 5670.13,4993.00
         A210,150 30.0 0 0 6033.87,5203.00 Z" />
<path id="horn2-2" class="Silber Rand2"
      d="M2423.54,4770.00 A720,270 -30.0 0 0 1176.46,5490.00
         A720,270 -30.0 0 0 2423.54,4770.00 Z" />
<path id="horn2-3" class="Silber Rand2"
      d="M4881,5803 C4904.67,5863.33 4928.33,5923.67 4958.83,5971.17
         C4989.33,6018.67 5026.67,6053.33 5066.67,6079.67
         C5106.67,6106 5149.33,6124 5192,6142 L5426,5923
         C5365.33,5906 5304.67,5889 5262,5870
         C5219.33,5852 5194.67,5832 5171.67,5798.83
         C5148.67,5765.67 5127.33,5719.33 5106,5673" />
<path id="horn2-4" class="Silber Rand2"
      d="M2631,5628 C2602,5679.33 2573,5730.67 2519.83,5798.67
         C2466.67,5866.67 2389.33,5951.33 2306,6017.33
         C2221.67,6083.33 2131.33,6130.67 2041,6178 L2311,6378
         C2386.67,6324 2462.33,6270 2531.17,6206.67
         C2600,6143.33 2662,6070.67 2705.83,5996 C2749.67,5921.33 2775.33,5844.67 2801,5768" />
<path id="band2-1" class="Silber Rand2"
      d="M3960,4680 L3960,4860 C4020,4830 4080,4800 4125,4740
         C4170,4680 4200,4590 4200,4515 C4200,4440 4170,4380 4125,4335
         C4080,4290 4020,4260 3930,4245 C3840,4230 3720,4230 3630,4245
         C3540,4260 3480,4290 3435,4335 C3390,4380 3360,4440 3360,4515
         C3360,4590 3390,4680 3435,4740 C3480,4800 3540,4830 3600,4860
         L3600,4680 C3570,4650 3540,4620 3540,4590
         C3540,4560 3570,4530 3645,4515 C3720,4500 3840,4500 3915,4515
         C3990,4530 4020,4560 4020,4590 C4020,4620 3990,4650 3960,4680 Z" />
<path id="horni-1" class="Schwarz Rand1"
      d="M5929.94,5143.00 A90,60 30.0 0 0 5774.06,5053.00 A90,60 30.0 0 0 5929.94,5143.00 Z" />
<path id="horni-2" class="Schwarz Rand1"
      d="M2322.73,4960.00 A532,150 -30.0 0 0 1401.27,5492.00
         A532,150 -30.0 0 0 2322.73,4960.00 Z" />
<path id="punkt-1" class="Schwarz"
      d="M3840,5760 A60,60 0.0 0 0 3720,5760 A60,60 0.0 0 0 3840,5760 Z" />
<path id="punkt-2" class="Schwarz"
      d="M3840,4050 A60,60 0.0 0 0 3720,4050 A60,60 0.0 0 0 3840,4050 Z" />
<path id="punkt-3" class="Schwarz"
      d="M3840,4680 A60,60 0.0 0 0 3720,4680 A60,60 0.0 0 0 3840,4680 Z" />
<path id="punkt-4" class="Schwarz"
      d="M3840,6930 A60,60 0.0 0 0 3720,6930 A60,60 0.0 0 0 3840,6930 Z" />
<path id="punkt-5" class="Schwarz"
      d="M3840,5220 A60,60 0.0 0 0 3720,5220 A60,60 0.0 0 0 3840,5220 Z" />
<!-- kludge for Opera 9.02 bug: explicit stroke-linecap -->
<use class="Rand12" xlink:href="#bund-1" stroke-linecap="round" />
<use class="Rand12" xlink:href="#bund-2" stroke-linecap="round" />
<use class="Rand12" xlink:href="#bund-3" stroke-linecap="round" />
<use class="Rand12" xlink:href="#bund-4" stroke-linecap="round" />
<use class="Silber8" xlink:href="#bund-1" stroke-linecap="round" />
<use class="Silber8" xlink:href="#bund-2" stroke-linecap="round" />
<use class="Silber8" xlink:href="#bund-3" stroke-linecap="round" />
<use class="Silber8" xlink:href="#bund-4" stroke-linecap="round" />
</g>
<path id="clip-boundary" class="Rand6"
      d="M360,4140 A3240,3240 0.0 0 0 6840,4140 L6840,270 L360,270 L360,4140 Z" />
</g>
</svg>
